X: 42302
T: Wedding Guests
R: waltz
M: 3/4
K: Dmajor
FG AB|:"A/D"cd cA (d2|"D"d2) FG AB|"A/D"cd cA (d2|"D"d2)ed cd|
"Em"de cA (B2|"G"B2)GA Bd|"A"cd cA (d2|1 :"D" d2) FG AB:|2 :"D"d2gf ef||
"A/C#"fg ec("G/B"d2|d2)gf ef|"D/A"fg ec (d2|d2)ed cd|"Em"de cA (B2|"G"B2) GA Bd|
"A"cd cA (d2|"D"d2)gf ef||"A/C#"fg e"G/B"c (d2|d2)gf ef|"D/A"ga ec (d2|
d2)ed cd|"Em"de cA (B2|"G"B2) GA Bd|"A"cd cA (d2|"D"d2)FG AB||
|:"D"D4 FG|"A/D"A5|"G/D"D3F2G|"D(Add9)"A4{/F2E2}D2|
"Em"B4 Bc/B/|"G"A3 (D E)F|"A"GA (E>F ED)|1 :"G"D6:|2 :"D"D2 {c}d6||
|:"A"c4 (cd/c/)|"G"B4 (Bc/B/|"D/F#"A)B A3(D|"Bm7"F)G A2D2|
"Em"B4"/F#"B2|"G"A3 (D EF)|"A"GA (E>F ED)|"D"(D2 {c}d4):|

